icons/blood_b_n_fill.svg

<svg width="48" height="48" viewBox="0 0 48 48" fill="none" xmlns="http://www.w3.org/2000/svg">
<path fill-rule="evenodd" clip-rule="evenodd" d="M16 11C15.4477 11 15 11.4477 15 12V24C15 24.2652 15.1054 24.5196 15.2929 24.7071C15.4804 24.8946 15.7348 25 16 25H21C23.2091 25 25 23.2091 25 21C25 19.8053 24.4762 18.7329 23.6458 18C24.4762 17.2671 25 16.1947 25 15C25 12.7909 23.2091 11 21 11H16ZM23 15C23 16.1046 22.1046 17 21 17H17V13H21C22.1046 13 23 13.8954 23 15ZM23 21C23 19.8954 22.1046 19 21 19H17V23H21C22.1046 23 23 22.1046 23 21Z" fill="black"/>
<path d="M26 18C26 17.4477 26.4477 17 27 17H32C32.5523 17 33 17.4477 33 18C33 18.5523 32.5523 19 32 19H27C26.4477 19 26 18.5523 26 18Z" fill="black"/>
<path fill-rule="evenodd" clip-rule="evenodd" d="M34 38C36.2091 38 38 36.2228 38 34.0306V10.3273C38 8.13508 36.2091 6.3579 34 6.3579H28L26.868 5.20243C25.2973 3.59919 22.7027 3.59919 21.132 5.20243L20 6.3579H14C11.7909 6.3579 10 8.13507 10 10.3273V34.0306C10 36.2228 11.7909 38 14 38H18V40H23V44H25V40H30V38H34ZM26.5714 7.75754C26.9475 8.14152 27.4625 8.3579 28 8.3579H34C35.1191 8.3579 36 9.25408 36 10.3273V27.5388C35.7222 27.3234 35.4135 27.1104 35.0748 26.9133C33.2501 25.8514 30.6105 25.2987 27.4919 27.1387C24.924 28.6538 22.5089 29.0636 19.8818 29.1195C18.711 29.1444 17.5142 29.0991 16.2308 29.0505C16.0558 29.0439 15.8789 29.0372 15.7005 29.0306C14.5326 28.9875 13.3017 28.9498 12 28.971V10.3273C12 9.25408 12.8809 8.3579 14 8.3579H20C20.5375 8.3579 21.0525 8.14151 21.4286 7.75754L22.5607 6.60207C23.3471 5.79931 24.6529 5.79931 25.4393 6.60207L26.5714 7.75754Z" fill="black"/>
</svg>

<svg
  xmlns="http://www.w3.org/2000/svg"
  width="24"
  height="24"
  viewBox="0 0 24 24"
  fill="none"
  stroke="currentColor"
  stroke-width="2"
  stroke-linecap="round"
  stroke-linejoin="round"
>
  <path
    fill-rule="evenodd"
    d="M16 11a1 1 0 0 0-1 1v12a1 1 0 0 0 1 1h5a4 4 0 0 0 2.646-7A4 4 0 0 0 21 11zm7 4a2 2 0 0 1-2 2h-4v-4h4a2 2 0 0 1 2 2m0 6a2 2 0 0 0-2-2h-4v4h4a2 2 0 0 0 2-2"
    clip-rule="evenodd"
  />
  <path d="M26 18a1 1 0 0 1 1-1h5a1 1 0 1 1 0 2h-5a1 1 0 0 1-1-1" />
  <path
    fill-rule="evenodd"
    d="M34 38c2.21 0 4-1.777 4-3.97V10.328c0-2.192-1.79-3.97-4-3.97h-6l-1.132-1.155a4.02 4.02 0 0 0-5.736 0L20 6.358h-6c-2.21 0-4 1.777-4 3.97V34.03C10 36.223 11.79 38 14 38h4v2h5v4h2v-4h5v-2zM26.571 7.758a2 2 0 0 0 1.429.6h6c1.12 0 2 .896 2 1.97v17.21a8.4 8.4 0 0 0-.925-.625c-1.825-1.062-4.465-1.614-7.583.226-2.568 1.515-4.983 1.925-7.61 1.98-1.171.025-2.368-.02-3.651-.069l-.53-.02A69 69 0 0 0 12 28.972V10.327c0-1.073.88-1.97 2-1.97h6a2 2 0 0 0 1.429-.6l1.132-1.155a2.02 2.02 0 0 1 2.878 0z"
    clip-rule="evenodd"
  />
</svg>
